X: 13
T:Lasses of Sligo (#193), The
M:9/8
L:1/8
S:Powers' Musical Cabinet 1810
K:A
ABc ABc F2 E|ABc A2 c ecB|ABc ABc F2 f|efg agf ecB:|
|:agf ece f3|fgf a2 b c'af|agf efg a3|Ace agf ecA:||

